assets/fill/folder-notch-plus-fill.svg

<svg id="Flat" xmlns="http://www.w3.org/2000/svg" viewBox="0 0 256 256">
  <path d="M215.99512,71.99805H130.65625L102.917,51.19336a16.07363,16.07363,0,0,0-9.57812-3.19531H39.99512a16.01581,16.01581,0,0,0-16,16v136a16.01582,16.01582,0,0,0,16,16h176a16.01583,16.01583,0,0,0,16-16v-112A16.01582,16.01582,0,0,0,215.99512,71.99805Zm-176,24v-32H93.33887l21.32617,15.999-21.3418,16.001ZM151.99707,156h-16v16a8,8,0,0,1-16,0V156h-16a8,8,0,0,1,0-16h16V124a8,8,0,0,1,16,0v16h16a8,8,0,0,1,0,16Z"/>
</svg>

<svg xmlns="http://www.w3.org/2000/svg" viewBox="0 0 256 256"><path d="M216,72H130.7L102.9,51.2A15.6,15.6,0,0,0,93.3,48H40A16,16,0,0,0,24,64V200a16,16,0,0,0,16,16H216a16,16,0,0,0,16-16V88A16,16,0,0,0,216,72ZM40,96V64H93.3l21.4,16L93.3,96Zm112,60H136v16a8,8,0,0,1-16,0V156H104a8,8,0,0,1,0-16h16V124a8,8,0,0,1,16,0v16h16a8,8,0,0,1,0,16Z"/></svg>
